src/svg/Play_60.svg

<?xml version="1.0" encoding="UTF-8"?>
<svg width="60px" height="60px" viewBox="0 0 60 60" version="1.1" xmlns="http://www.w3.org/2000/svg" xmlns:xlink="http://www.w3.org/1999/xlink">
    <!-- Generator: Sketch 55.2 (78181) - https://sketchapp.com -->
    <title>Icons/Play/Black 60</title>
    <desc>Created with Sketch.</desc>
    <g id="Icons/Play/Black-60" stroke="none" stroke-width="1" fill="none" fill-rule="evenodd">
        <g fill="#000000" fill-rule="nonzero">
            <path d="M30,0 C46.5682896,0 60,13.4316094 60,29.9997743 C60,46.5683906 46.5682896,60 30,60 C13.4312589,60 0,46.5683906 0,29.9997743 C0,13.4316094 13.4312589,0 30,0 Z M30,1 C13.9837003,1 1,13.9837375 1,29.9997743 C1,46.016195 13.9836328,59 30,59 C46.016074,59 59,46.0160367 59,29.9997743 C59,13.9838958 46.0160065,1 30,1 Z" id="Stroke-1"></path>
            <path d="M24,19 L24,40 L42,29.5 L24,19 Z M40.0153651,29.5 L25,38.258963 L25,20.741037 L40.0153651,29.5 Z" id="Stroke-3"></path>
        </g>
    </g>
</svg>

<svg viewBox="0 0 60 60"><g fill-rule="nonzero"><path d="M30 0c16.568 0 30 13.432 30 30 0 16.568-13.432 30-30 30C13.431 60 0 46.568 0 30 0 13.432 13.431 0 30 0zm0 1C13.984 1 1 13.984 1 30s12.984 29 29 29 29-12.984 29-29S46.016 1 30 1z"/><path d="M24 19v21l18-10.5L24 19zm16.015 10.5L25 38.259V20.741L40.015 29.5z"/></g></svg>
